services/frontend/src/assets/icons/edit_pencil.svg

<svg width="24" height="25" viewBox="0 0 24 25" fill="none" xmlns="http://www.w3.org/2000/svg">
<path d="M15.3779 10.5547L16.3457 9.48101C17.3712 8.34678 17.8334 7.05377 16.2373 5.47341C14.6412 3.90062 13.4351 4.45261 12.4095 5.58684L6.4801 12.1578C6.25621 12.4073 6.03954 12.8988 5.99621 13.2391L5.72898 15.689C5.6351 16.5737 6.24176 17.1786 7.07954 17.0274L9.4051 16.6115C9.7301 16.551 10.1851 16.3015 10.409 16.0444L13.2618 12.8837M11.4196 6.6833C11.7302 8.77027 13.3479 10.3657 15.3557 10.5775M5 19.5H12.9444M15.8333 19.5H18" stroke="black" stroke-opacity="0.7" stroke-width="1.5" stroke-miterlimit="10" stroke-linecap="round" stroke-linejoin="round"/>
</svg>

<svg xmlns="http://www.w3.org/2000/svg" fill="none" viewBox="0 0 24 25"><path stroke="current" stroke-linecap="round" stroke-linejoin="round" stroke-miterlimit="10" stroke-width="1.5" d="m15.38 10.55.97-1.07c1.02-1.13 1.48-2.43-.11-4-1.6-1.58-2.8-1.03-3.83.1l-5.93 6.58c-.22.25-.44.74-.48 1.08l-.27 2.45c-.1.88.51 1.49 1.35 1.34l2.33-.42c.32-.06.78-.3 1-.57l2.85-3.16m-1.84-6.2a4.52 4.52 0 0 0 3.94 3.9M5 19.5h7.94m2.9 0H18"/></svg>
